X: 2197
T: Schottis efter Erik Gustaf Gustafsson, Bremyre
S: efter Erik Gustaf Gustafsson
R: Schottis
O: Södermanland
B: [[http://www.sormlandsmusikarkiv.se/noter/eg_gustafsson/page_eg_gustafsson.html|Sörmlands musikarkiv]] (sida 24 i notsamlingen)
Z: Nils L
M: 2/4
L: 1/16
K: A
(EA)cB A2A2 | (ce)ac e2ea | g2Bc d2df | e2AB cBA2 |
(EA)cB A2A2 | (ce)ac e2ea | g2Bc d2GB | A2c2 A4 |
(Ad)fd (Ad)fd | (Ac)ec (Ac)ec | E2GB d2cB | A2ce a4 |
(Ad)fd (Ad)fd | (Ac)ec (Ac)ec | E2GB d2cB | A2c2 A4 |
(:musicend:)
(:music:)
